project/porshe/images/svg/icon-experience.svg

<svg width="28" height="26" viewBox="0 0 28 26" fill="none" xmlns="http://www.w3.org/2000/svg">
<path d="M10.3769 4.1212H17.0182V5.32243H10.3769V4.1212Z" fill="black"/>
<path d="M15.1082 8.92589H23.7419V10.1271H15.1082V8.92589Z" fill="black"/>
<path fill-rule="evenodd" clip-rule="evenodd" d="M26.2483 0.00274566H8.02585C7.04559 0.00274566 6.55679 0.869 6.55679 1.52109V5.12477L1.98224 9.85279C0.2887 11.6031 -0.127047 13.6885 0.0310163 14.9405C0.154019 15.9337 1.25953 22.5636 1.67628 25.0629C1.76351 25.586 1.82065 25.9287 1.83214 26H2.93593C2.91867 25.897 1.29287 15.9701 1.14277 14.7936C1.01792 13.7983 1.37522 12.1248 2.77787 10.6751L6.56343 6.74471V12.2621L3.2587 15.7285L4.04769 16.5522L6.5714 13.8917L7.69246 12.7412L10.8883 9.47252C10.8883 9.47252 12.0757 10.3305 10.5642 12.4241C9.16563 14.3611 9.10426 14.4472 9.1029 14.4492L8.18923 15.6077C8.18923 15.6077 7.98202 15.874 7.98202 16.2172C7.98202 16.547 8.12061 16.7108 8.22691 16.8363L8.2397 16.8515C8.67936 17.4006 9.30231 18.3616 9.30231 19.2196C9.30231 20.5156 8.04843 21.8966 8.03249 21.9131L8.43894 22.3085L8.84539 22.7121C8.9118 22.6434 10.4234 20.9796 10.4234 19.2196C10.4234 17.9415 9.5932 16.8858 9.10307 16.2859L9.63438 15.6077H13.7852V19.0741C13.7852 20.7736 11.7091 21.8719 11.6852 21.8801L11.3784 22.0435V25.9986H12.5406V22.7382C13.2539 22.292 14.9488 21.0221 14.9488 19.0741V15.6159H26.2643C27.028 15.6159 27.7333 14.9556 27.7333 14.088V1.51835C27.7254 0.711125 27.1104 0 26.247 0L26.2483 0.00274566ZM26.5645 14.1936C26.5645 14.2801 26.4808 14.4174 26.34 14.4174H10.5177L11.3731 13.1557C11.5391 12.9759 12.4689 11.8859 12.4941 10.5213C12.5101 9.49989 11.7636 8.64188 11.7636 8.64188C11.5976 8.29867 11.2575 8.17786 11.0663 8.14354C11.0663 8.14354 10.6014 8.04058 10.2693 8.38379C10.1949 8.46066 7.638 11.069 7.638 11.069V1.33843C7.638 1.23547 7.72965 1.12427 7.84521 1.12427H26.3493C26.4741 1.12427 26.5658 1.22723 26.5658 1.33019V14.1922L26.5645 14.1936Z" fill="black"/>
</svg>

<svg width="28" height="26" fill="none" xmlns="http://www.w3.org/2000/svg"><path d="M10.377 4.121h6.641v1.201h-6.641v-1.2zm4.731 4.805h8.634v1.201h-8.634V8.926z" fill="#000"/><path fill-rule="evenodd" clip-rule="evenodd" d="M26.248.003H8.026c-.98 0-1.47.866-1.47 1.518v3.604L1.983 9.853C.29 11.603-.127 13.688.031 14.94c.123.993 1.229 7.623 1.645 10.122l.156.937h1.104c-.017-.103-1.643-10.03-1.793-11.206-.125-.996.232-2.67 1.635-4.119l3.785-3.93v5.517L3.26 15.728l.789.824 2.523-2.66 1.121-1.15 3.196-3.27s1.188.859-.324 2.952L9.103 14.45l-.914 1.159s-.207.266-.207.61c0 .329.139.493.245.618l.013.016c.44.549 1.062 1.51 1.062 2.368 0 1.296-1.254 2.677-1.27 2.693l.407.395.406.404c.067-.069 1.578-1.732 1.578-3.492 0-1.278-.83-2.334-1.32-2.934l.531-.678h4.151v3.466c0 1.7-2.076 2.798-2.1 2.806l-.307.164V26h1.163v-3.26c.713-.447 2.408-1.717 2.408-3.665v-3.458h11.315c.764 0 1.47-.66 1.47-1.528V1.518C27.724.711 27.11 0 26.246 0l.001.003zm.316 14.19c0 .087-.083.224-.224.224H10.518l.855-1.261c.166-.18 1.096-1.27 1.121-2.635.016-1.021-.73-1.88-.73-1.88-.166-.342-.506-.463-.698-.497 0 0-.465-.103-.797.24-.074.077-2.631 2.685-2.631 2.685v-9.73c0-.104.092-.215.207-.215H26.35c.125 0 .217.103.217.206v12.862l-.002.002z" fill="#000"/></svg>
